X:13
T:Cooley's Reel
R:reel
L:1/8
M:4/4
K:D
&quot;Em&quot;EBBA B2 EB|B2 AB dBAG|&quot;D&quot;(3FED AD BDAD|(3FED AD BAGF|
&quot;Em&quot;EBBA B2 EB|B2 AB defg|&quot;D&quot;afec dBAF|DEFD &quot;Em&quot;E4:|
&quot;Em&quot;eB (3BBB eBgf|eB (3BBB gedB|&quot;D&quot;A2 FA DAFA|BAFA defg|
&quot;Em&quot;eB (3BBB eBgf|eB (3BBB defg|&quot;D&quot;afec dBAF|DEFD &quot;Em&quot;E4:|
